dist/img/coop/task.svg

<svg width="80" height="80" viewBox="0 0 80 80" fill="none" xmlns="http://www.w3.org/2000/svg">
<rect width="80" height="80" rx="5" fill="#D1327F"/>
<path d="M19 70H61C64.309 70 67 67.309 67 64V19C67 15.691 64.309 13 61 13H55C55 12.2044 54.6839 11.4413 54.1213 10.8787C53.5587 10.3161 52.7956 10 52 10H28C27.2044 10 26.4413 10.3161 25.8787 10.8787C25.3161 11.4413 25 12.2044 25 13H19C15.691 13 13 15.691 13 19V64C13 67.309 15.691 70 19 70ZM19 19H25V25H55V19H61V64H19V19Z" fill="#F1EDF3"/>
<path d="M36.2911 45.0304L30.5374 39.3435L26 43.8283L36.2911 54L53 37.4848L48.4626 33L36.2911 45.0304Z" fill="#F1EDF3"/>
</svg>

<svg width="80" height="80" fill="none" xmlns="http://www.w3.org/2000/svg"><rect width="80" height="80" rx="5" fill="#D1327F"/><path d="M19 70h42c3.309 0 6-2.691 6-6V19c0-3.309-2.691-6-6-6h-6a3 3 0 0 0-3-3H28a3 3 0 0 0-3 3h-6c-3.309 0-6 2.691-6 6v45c0 3.309 2.691 6 6 6Zm0-51h6v6h30v-6h6v45H19V19Z" fill="#F1EDF3"/><path d="m36.291 45.03-5.754-5.687L26 43.828 36.291 54 53 37.485 48.463 33 36.29 45.03Z" fill="#F1EDF3"/></svg>
